exported-svg/cast.svg

<svg height="24" viewBox="0 0 24 24" width="24" xmlns="http://www.w3.org/2000/svg"><path d="m1.90008476 16.5899152c-.27057272-.0551816-.44518167-.3192577-.39-.5898304.05518166-.2705728.31925777-.4451817.58983048-.39 2.16071761.4406652 3.84933475 2.1292824 4.29 4.29.05518167.2705727-.11942728.5346488-.39.5898304-.27057271.0551817-.53464882-.1194272-.58983048-.39-.3605443-1.7678598-1.74214014-3.1494557-3.51-3.51zm.04464599-4.0429793c-.27445014-.0305243-.47219104-.277755-.44166667-.5522052.03052437-.2744501.27775504-.472191.55220517-.4416666 4.41523705.491063 7.90060364 3.9764296 8.39166665 8.3916666.0305244.2744502-.1672165.5216809-.4416666.5522052-.27445018.0305244-.52168085-.1672165-.55220522-.4416666-.43937219-3.9504753-3.55785808-7.0689612-7.50833333-7.5083334zm.55526925-4.5469359c0 .27614237-.22385763.5-.5.5s-.5-.22385763-.5-.5v-2c0-1.38071187 1.11928813-2.5 2.5-2.5h16c1.3807119 0 2.5 1.11928813 2.5 2.5v12c0 1.3807119-1.1192881 2.5-2.5 2.5h-6c-.2761424 0-.5-.2238576-.5-.5s.2238576-.5.5-.5h6c.8284271 0 1.5-.6715729 1.5-1.5v-12c0-.82842712-.6715729-1.5-1.5-1.5h-16c-.82842712 0-1.5.67157288-1.5 1.5z"/></svg>

<?xml version="1.0" encoding="UTF-8"?>
<svg width="24px" height="24px" viewBox="0 0 24 24" version="1.1" xmlns="http://www.w3.org/2000/svg" xmlns:xlink="http://www.w3.org/1999/xlink">
    <!-- Generator: Sketch 55.2 (78181) - https://sketchapp.com -->
    <title>cast</title>
    <desc>Created with Sketch.</desc>
    <g id="cast" stroke="none" stroke-width="1" fill="none" fill-rule="evenodd">
        <path d="M1.90008476,16.5899152 C1.62951204,16.5347336 1.45490309,16.2706575 1.51008476,16.0000848 C1.56526642,15.729512 1.82934253,15.5549031 2.09991524,15.6100848 C4.26063285,16.05075 5.94924999,17.7393672 6.38991524,19.9000848 C6.44509691,20.1706575 6.27048796,20.4347336 5.99991524,20.4899152 C5.72934253,20.5450969 5.46526642,20.370488 5.41008476,20.0999152 C5.04954046,18.3320554 3.66794462,16.9504595 1.90008476,16.5899152 Z M1.94473075,12.5469359 C1.67028061,12.5164116 1.47253971,12.2691809 1.50306408,11.9947307 C1.53358845,11.7202806 1.78081912,11.5225397 2.05526925,11.5530641 C6.4705063,12.0441271 9.95587289,15.5294937 10.4469359,19.9447307 C10.4774603,20.2191809 10.2797194,20.4664116 10.0052693,20.4969359 C9.73081912,20.5274603 9.48358845,20.3297194 9.45306408,20.0552693 C9.01369189,16.104794 5.895206,12.9863081 1.94473075,12.5469359 Z M2.5,8 C2.5,8.27614237 2.27614237,8.5 2,8.5 C1.72385763,8.5 1.5,8.27614237 1.5,8 L1.5,6 C1.5,4.61928813 2.61928813,3.5 4,3.5 L20,3.5 C21.3807119,3.5 22.5,4.61928813 22.5,6 L22.5,18 C22.5,19.3807119 21.3807119,20.5 20,20.5 L14,20.5 C13.7238576,20.5 13.5,20.2761424 13.5,20 C13.5,19.7238576 13.7238576,19.5 14,19.5 L20,19.5 C20.8284271,19.5 21.5,18.8284271 21.5,18 L21.5,6 C21.5,5.17157288 20.8284271,4.5 20,4.5 L4,4.5 C3.17157288,4.5 2.5,5.17157288 2.5,6 L2.5,8 Z" id="Shape" fill="#000000" fill-rule="nonzero"></path>
    </g>
</svg>
